modules/coreui-icons-free/icons/expand-down.svg

<!-- Generated by IcoMoon.io -->
<svg version="1.1" xmlns="http://www.w3.org/2000/svg" width="24" height="24" viewBox="0 0 24 24">
<title>expand-down</title>
<path d="M0.75 0.75h22.5v1.5h-22.5v-1.5z"></path>
<path d="M0.75 23.25h22.5v-6h-22.5zM2.25 18.75h19.5v3h-19.5z"></path>
<path d="M19.5 4.5h-15v1.775l7.496 7.939 7.504-7.842zM12.004 12.036l-5.7-6.036h11.476z"></path>
</svg>

<svg xmlns="http://www.w3.org/2000/svg" width="24" height="24" viewBox="0 0 24 24"><path d="M.75.75h22.5v1.5H.75V.75zM.75 23.25h22.5v-6H.75zm1.5-4.5h19.5v3H2.25zM19.5 4.5h-15v1.775l7.496 7.939L19.5 6.372zm-7.496 7.536L6.304 6H17.78z"/></svg>
